symbols/web/devices/materialsymbolsoutlined/devices_wght300grad200_48px.svg

<svg xmlns="http://www.w3.org/2000/svg" height="48" width="48"><path d="M4.25 39.6v-4.4h4.2V11.65q0-1.4 1.05-2.475Q10.55 8.1 12 8.1h30.2v2.95H12q-.25 0-.45.175t-.2.425V35.2H23.1v4.4Zm24.65 0q-.8 0-1.35-.575T27 37.5V16.55q0-.75.55-1.325t1.3-.575h12.7q.95 0 1.6.575.65.575.65 1.325V37.5q0 .95-.65 1.525t-1.6.575Zm1.05-4.4H40.9V17.6H29.95Z"/></svg>

<svg xmlns="http://www.w3.org/2000/svg" height="48" width="48"><path d="M4.25 39.6V35.2H8.45V11.65Q8.45 10.25 9.5 9.175Q10.55 8.1 12 8.1H42.2V11.05H12Q11.75 11.05 11.55 11.225Q11.35 11.4 11.35 11.65V35.2H23.1V39.6ZM28.9 39.6Q28.1 39.6 27.55 39.025Q27 38.45 27 37.5V16.55Q27 15.8 27.55 15.225Q28.1 14.65 28.85 14.65H41.55Q42.5 14.65 43.15 15.225Q43.8 15.8 43.8 16.55V37.5Q43.8 38.45 43.15 39.025Q42.5 39.6 41.55 39.6ZM29.95 35.2H40.9V17.6H29.95Z"/></svg>
